packages/ui-icons/svg/Line/email.svg

<svg viewBox="0 0 1920 1920" version="1.1" xmlns="http://www.w3.org/2000/svg">
    <path d="M0,1694.23529 L1920,1694.23529 L1920,226 L0,226 L0,1694.23529 Z M112.941176,376.663529 L112.941176,338.941176 L1807.05882,338.941176 L1807.05882,376.663529 L960,1111.23294 L112.941176,376.663529 Z M1807.05882,526.197647 L1807.05882,1476.71059 L1455.92471,1037.82118 L1367.60471,1108.29647 L1745.95765,1581.29412 L174.042353,1581.29412 L552.395294,1108.29647 L464.075294,1037.82118 L112.941176,1476.71059 L112.941176,526.197647 L960,1260.76706 L1807.05882,526.197647 Z" stroke="none" stroke-width="1" fill-rule="evenodd"/>
</svg>

<svg viewBox="0 0 1920 1920" version="1.1" xmlns="http://www.w3.org/2000/svg">
    <path d="M0 1694.235h1920V226H0v1468.235zM112.941 376.664V338.94H1807.06v37.723L960 1111.233l-847.059-734.57zM1807.06 526.198v950.513l-351.134-438.89-88.32 70.475 378.353 472.998H174.042l378.353-472.998-88.32-70.475-351.134 438.89V526.198L960 1260.768l847.059-734.57z" stroke="none" stroke-width="1" fill-rule="evenodd"/>
</svg>
